src/assets/choria.svg

<svg width="127"
  height="45"
  viewBox="0 0 127 45"
  fill="none"
  xmlns="http://www.w3.org/2000/svg">
  <path d="M18.0396 35.1814C17.165 35.8998 16.0873 36.4777 14.8066 36.915C13.5571 37.3211 12.2919 37.5242 11.0112 37.5242C8.82458 37.5242 6.90348 37.1025 5.24789 36.2591C3.59231 35.4156 2.29595 34.213 1.35883 32.6511C0.452943 31.0893 0 29.2306 0 27.0752C0 24.9199 0.484181 23.0612 1.45254 21.4994C2.45214 19.9375 3.74849 18.7505 5.3416 17.9383C6.93471 17.0949 8.65277 16.6732 10.4958 16.6732C12.1514 16.6732 13.6195 16.9075 14.9003 17.376C16.181 17.8133 17.2899 18.4225 18.2271 19.2034L15.6031 22.6239C15.1033 22.2178 14.4473 21.843 13.6351 21.4994C12.8542 21.1245 11.9639 20.9371 10.9643 20.9371C9.90227 20.9371 8.93391 21.2026 8.05926 21.7336C7.21585 22.2647 6.52863 22.9988 5.99759 23.9359C5.49779 24.8418 5.24789 25.8882 5.24789 27.0752C5.24789 28.7621 5.82579 30.2146 6.98157 31.4329C8.13736 32.6199 9.63675 33.2134 11.4798 33.2134C13.0104 33.2134 14.3224 32.7761 15.4157 31.9014L18.0396 35.1814Z"
    fill="white" />
  <path d="M23.4208 37.0088V0.460938H28.5749V20.6091C29.2622 19.3596 30.2618 18.3444 31.5737 17.5634C32.917 16.7513 34.5101 16.3452 36.3531 16.3452C38.1961 16.3452 39.7267 16.9075 40.945 18.032C42.1945 19.1253 42.8348 20.5466 42.8661 22.2959V37.0088H37.6182V24.1702C37.5557 23.1706 37.259 22.374 36.7279 21.7805C36.2281 21.1557 35.4003 20.8278 34.2445 20.7965C32.6202 20.7965 31.277 21.4994 30.2149 22.905C29.1841 24.3107 28.6687 26.0756 28.6687 28.1998V37.0088H23.4208Z"
    fill="white" />
  <path d="M48.4577 26.8878C48.4577 24.8886 48.9263 23.0925 49.8634 21.4994C50.8317 19.9062 52.1437 18.6411 53.7993 17.704C55.4861 16.7669 57.4228 16.2983 59.6095 16.2983C61.8273 16.2983 63.7484 16.7669 65.3728 17.704C67.0284 18.6411 68.3091 19.9062 69.215 21.4994C70.1209 23.0925 70.5738 24.8886 70.5738 26.8878C70.5738 28.887 70.1209 30.6988 69.215 32.3231C68.3091 33.9162 67.0284 35.1814 65.3728 36.1185C63.7172 37.0556 61.7805 37.5242 59.5626 37.5242C57.4072 37.5242 55.4861 37.1025 53.7993 36.2591C52.1437 35.3844 50.8317 34.1505 49.8634 32.5574C48.9263 30.9643 48.4577 29.0744 48.4577 26.8878ZM52.5 26.8878C52.5 28.0748 53.2995 30.0316 53.7993 31C54.2991 31.9371 55.6566 32.9377 56.5 33.5C57.3746 34.031 58.4067 34.5 59.5 34.5C61.2181 34.5 63.1919 33.5102 64.254 32.3231C65.3161 31.1049 66.5 28.6684 66.5 26.8878C66.5 25.1073 65.0621 22.2183 64 21C62.9379 19.7817 60.7181 19.5 59 19.5C57.9067 19.5 56.8746 19.9065 56 20.5C55.1566 21.0623 53.9998 21.5316 53.5 22.5C53.0002 23.4371 52.5 25.732 52.5 26.8878Z"
    fill="white" />
  <path d="M76.0882 17.1886H81.3361V37.0088H76.0882V17.1886ZM75.8539 10.1133C75.8539 9.30114 76.1663 8.62953 76.791 8.09849C77.447 7.56746 78.1499 7.30194 78.8996 7.30194C79.618 7.30194 80.2896 7.56746 80.9144 8.09849C81.5391 8.62953 81.8515 9.30114 81.8515 10.1133C81.8515 10.9255 81.5391 11.5971 80.9144 12.1281C80.2896 12.6279 79.618 12.8778 78.8996 12.8778C78.1499 12.8778 77.447 12.6279 76.791 12.1281C76.1663 11.5971 75.8539 10.9255 75.8539 10.1133Z"
    fill="white" />
  <path d="M93.2668 17.1886L93.6417 21.7805C94.204 20.656 94.9693 19.6876 95.9377 18.8754C96.906 18.032 97.89 17.3916 98.8896 16.9543C99.9204 16.517 100.764 16.2983 101.42 16.2983L101.186 21.5462C99.6861 21.4213 98.3742 21.6868 97.2496 22.3428C96.1563 22.9988 95.2973 23.889 94.6725 25.0136C94.079 26.1069 93.7823 27.2627 93.7823 28.4809V37.0088H88.5344V17.1886H93.2668Z"
    fill="white" />
  <path d="M114.583 37.5242C112.709 37.5242 111.022 37.1337 109.523 36.3528C108.023 35.5718 106.821 34.416 105.915 32.8854C105.04 31.3548 104.603 29.4337 104.603 27.1221C104.603 24.873 105.056 22.9519 105.962 21.3588C106.899 19.7344 108.117 18.4849 109.616 17.6103C111.147 16.7356 112.803 16.2983 114.583 16.2983C116.426 16.2983 117.91 16.6576 119.034 17.376C120.19 18.0632 121.112 18.891 121.799 19.8594L122.174 17.1886H127V37.0088H121.752V34.1037C121.409 34.5098 120.909 34.9783 120.253 35.5094C119.597 36.0404 118.785 36.509 117.816 36.915C116.879 37.3211 115.801 37.5242 114.583 37.5242ZM116.036 33.2134C117.441 33.2134 118.644 32.8386 119.644 32.0889C120.643 31.3392 121.346 30.3083 121.752 28.9963V24.6856C121.377 23.4673 120.659 22.4833 119.597 21.7336C118.535 20.9839 117.285 20.6091 115.848 20.6091C114.755 20.6091 113.755 20.8746 112.849 21.4056C111.975 21.9054 111.256 22.6395 110.694 23.6079C110.163 24.545 109.897 25.6227 109.897 26.841C109.897 28.028 110.179 29.1057 110.741 30.074C111.303 31.0424 112.037 31.8077 112.943 32.37C113.88 32.9323 114.911 33.2134 116.036 33.2134Z"
    fill="white" />
  <path fill-rule="evenodd"
    clip-rule="evenodd"
    d="M71.1307 37.8866C71.9215 38.6508 71.8755 39.8484 71.028 40.5614C66.4679 44.3978 61.6153 45.2751 57.4048 44.6899C53.305 44.12 49.9341 42.1877 48.0305 40.5449C47.193 39.8222 47.1639 38.6242 47.9654 37.8691C48.7669 37.114 50.0955 37.0878 50.933 37.8105C52.3391 39.0239 54.9513 40.5191 58.0443 40.949C61.0264 41.3635 64.5762 40.8126 68.1642 37.7939C69.0118 37.0809 70.3399 37.1224 71.1307 37.8866Z"
    fill="white" />
  <path d="M48 26.9757C48 24.9036 48.4873 23.0419 49.4619 21.3907C50.4689 19.7395 51.8333 18.4283 53.5551 17.457C55.3093 16.4857 57.3234 16 59.5975 16C61.904 16 63.9018 16.4857 65.5911 17.457C67.3129 18.4283 68.6448 19.7395 69.5869 21.3907C70.529 23.0419 71 24.9036 71 26.9757C71 29.0478 70.529 30.9257 69.5869 32.6093C68.6448 34.2605 67.3129 35.5717 65.5911 36.543C63.8694 37.5143 61.8552 38 59.5487 38C57.3072 38 55.3093 37.5629 53.5551 36.6887C51.8333 35.7822 50.4689 34.5033 49.4619 32.8521C48.4873 31.2009 48 29.2421 48 26.9757ZM53.5064 27.0243C53.5064 28.2546 53.7662 29.3716 54.286 30.3753C54.8058 31.3466 55.5042 32.1236 56.3814 32.7064C57.291 33.2568 58.3143 33.532 59.4513 33.532C61.238 33.532 62.6836 32.9169 63.7881 31.6865C64.8927 30.4238 65.4449 28.8698 65.4449 27.0243C65.4449 25.1788 64.8927 23.6247 63.7881 22.362C62.6836 21.0993 61.238 20.468 59.4513 20.468C58.3143 20.468 57.291 20.7756 56.3814 21.3907C55.5042 21.9735 54.8058 22.7667 54.286 23.7704C53.7662 24.7417 53.5064 25.8263 53.5064 27.0243Z"
    fill="#FFC701" />
</svg>

<svg xmlns="http://www.w3.org/2000/svg" width="127" height="45" fill="none"><path fill="#fff" d="M18.04 35.181c-.875.719-1.953 1.297-3.233 1.734a12.21 12.21 0 0 1-3.796.61c-2.186 0-4.108-.422-5.763-1.266-1.656-.843-2.952-2.046-3.89-3.608C.454 31.09 0 29.231 0 27.075c0-2.155.484-4.014 1.453-5.576 1-1.561 2.295-2.748 3.889-3.56a10.85 10.85 0 0 1 5.154-1.266c1.655 0 3.123.235 4.404.703 1.281.437 2.39 1.046 3.327 1.827l-2.624 3.42c-.5-.405-1.156-.78-1.968-1.124-.78-.374-1.671-.562-2.67-.562a5.49 5.49 0 0 0-2.906.797c-.843.53-1.53 1.265-2.061 2.202-.5.906-.75 1.952-.75 3.14 0 1.686.578 3.139 1.734 4.357 1.155 1.187 2.655 1.78 4.498 1.78 1.53 0 2.842-.437 3.936-1.312l2.624 3.28ZM23.42 37.009V.46h5.155v20.148c.687-1.25 1.687-2.265 2.999-3.046 1.343-.812 2.936-1.218 4.78-1.218 1.842 0 3.373.563 4.591 1.687 1.25 1.093 1.89 2.515 1.921 4.264v14.713h-5.248V24.17c-.062-1-.359-1.796-.89-2.39-.5-.624-1.328-.952-2.483-.983-1.625 0-2.968.702-4.03 2.108-1.03 1.406-1.546 3.17-1.546 5.295v8.809H23.42ZM48.458 26.888c0-2 .468-3.796 1.405-5.389.969-1.593 2.28-2.858 3.936-3.795 1.687-.937 3.624-1.406 5.81-1.406 2.218 0 4.14.469 5.764 1.406 1.655.937 2.936 2.202 3.842 3.795.906 1.594 1.359 3.39 1.359 5.389s-.453 3.81-1.359 5.435c-.906 1.593-2.187 2.858-3.842 3.795-1.656.938-3.593 1.406-5.81 1.406-2.156 0-4.077-.422-5.764-1.265a9.975 9.975 0 0 1-3.936-3.702c-.937-1.593-1.405-3.483-1.405-5.67Zm4.042 0c0 1.187.8 3.144 1.3 4.112.5.937 1.857 1.938 2.7 2.5.875.531 1.907 1 3 1 1.718 0 3.692-.99 4.754-2.177 1.062-1.218 2.246-3.655 2.246-5.435 0-1.78-1.438-4.67-2.5-5.888s-3.282-1.5-5-1.5c-1.093 0-2.125.407-3 1-.843.562-2 1.032-2.5 2-.5.937-1 3.232-1 4.388ZM76.088 17.189h5.248v19.82h-5.248v-19.82Zm-.234-7.076c0-.812.312-1.483.937-2.015.656-.53 1.359-.796 2.109-.796.718 0 1.39.265 2.014.796.625.532.938 1.203.938 2.015 0 .813-.313 1.484-.938 2.015-.624.5-1.296.75-2.014.75-.75 0-1.453-.25-2.109-.75-.625-.53-.937-1.203-.937-2.015ZM93.267 17.189l.375 4.591a9.018 9.018 0 0 1 2.296-2.905c.968-.843 1.952-1.483 2.952-1.92 1.03-.438 1.874-.657 2.53-.657l-.234 5.248c-1.5-.125-2.812.14-3.936.797a7.055 7.055 0 0 0-2.578 2.67 7.163 7.163 0 0 0-.89 3.468v8.528h-5.248v-19.82h4.733ZM114.583 37.524c-1.874 0-3.561-.39-5.06-1.171-1.5-.781-2.702-1.937-3.608-3.468-.875-1.53-1.312-3.451-1.312-5.763 0-2.249.453-4.17 1.359-5.763.937-1.625 2.155-2.874 3.654-3.749a9.846 9.846 0 0 1 4.967-1.312c1.843 0 3.327.36 4.451 1.078 1.156.687 2.078 1.515 2.765 2.483l.375-2.67H127v19.82h-5.248v-2.905c-.343.406-.843.874-1.499 1.405-.656.531-1.468 1-2.437 1.406-.937.406-2.015.61-3.233.61Zm1.453-4.31c1.405 0 2.608-.375 3.608-1.125.999-.75 1.702-1.78 2.108-3.093v-4.31c-.375-1.219-1.093-2.203-2.155-2.952-1.062-.75-2.312-1.125-3.749-1.125a5.823 5.823 0 0 0-2.999.797c-.874.5-1.593 1.234-2.155 2.202-.531.937-.797 2.015-.797 3.233 0 1.187.282 2.265.844 3.233a6.47 6.47 0 0 0 2.202 2.296 5.898 5.898 0 0 0 3.093.843Z"/><path fill="#fff" fill-rule="evenodd" d="M71.13 37.887c.791.764.746 1.961-.102 2.674-4.56 3.837-9.413 4.714-13.623 4.129-4.1-.57-7.47-2.502-9.374-4.145-.838-.723-.867-1.92-.066-2.676.802-.755 2.13-.781 2.968-.059 1.406 1.214 4.018 2.71 7.111 3.139 2.982.415 6.532-.136 10.12-3.155.848-.713 2.176-.672 2.967.093Z" clip-rule="evenodd"/><path fill="#FFC701" d="M48 26.976c0-2.072.487-3.934 1.462-5.585 1.007-1.651 2.371-2.963 4.093-3.934C55.31 16.486 57.323 16 59.597 16c2.307 0 4.305.486 5.994 1.457 1.722.971 3.054 2.282 3.996 3.934.942 1.65 1.413 3.513 1.413 5.585s-.471 3.95-1.413 5.633c-.942 1.651-2.274 2.963-3.996 3.934C63.87 37.514 61.855 38 59.55 38c-2.242 0-4.24-.437-5.994-1.311a10.358 10.358 0 0 1-4.093-3.837C48.487 31.201 48 29.242 48 26.976Zm5.506.048c0 1.23.26 2.348.78 3.351a6.33 6.33 0 0 0 2.095 2.331c.91.55 1.933.826 3.07.826 1.787 0 3.233-.615 4.337-1.845 1.105-1.263 1.657-2.817 1.657-4.663 0-1.845-.552-3.4-1.657-4.662-1.104-1.263-2.55-1.894-4.337-1.894-1.137 0-2.16.308-3.07.923-.877.583-1.575 1.376-2.095 2.38-.52.97-.78 2.055-.78 3.253Z"/></svg>
